popbee/2026-most-hearted-awards/public/heart.svg

<svg fill="none" height="20" viewBox="0 0 20 20" width="20" xmlns="http://www.w3.org/2000/svg"><path d="m18.75 7.96989c0 5.47001-8.1086 9.89761-8.4539 10.08051-.091.049-.1928.0746-.2961.0746-.10335 0-.20508-.0256-.29609-.0746-.34532-.1829-8.45391-4.6105-8.45391-10.08051.00145-1.2845.51223-2.51597 1.4203-3.42425s2.13925-1.41919 3.42345-1.42064c1.61328 0 3.02578.69391 3.90625 1.86685.8805-1.17294 2.293-1.86685 3.9062-1.86685 1.2842.00145 2.5154.51236 3.4235 1.42064s1.4189 2.13975 1.4203 3.42425z" fill="#e94430"/></svg>

<svg width="20" height="20" viewBox="0 0 20 20" fill="none" xmlns="http://www.w3.org/2000/svg">
<path d="M18.75 7.96989C18.75 13.4399 10.6414 17.8675 10.2961 18.0504C10.2051 18.0994 10.1033 18.125 10 18.125C9.89665 18.125 9.79492 18.0994 9.70391 18.0504C9.35859 17.8675 1.25 13.4399 1.25 7.96989C1.25145 6.68539 1.76223 5.45392 2.6703 4.54564C3.57837 3.63736 4.80955 3.12645 6.09375 3.125C7.70703 3.125 9.11953 3.81891 10 4.99185C10.8805 3.81891 12.293 3.125 13.9062 3.125C15.1904 3.12645 16.4216 3.63736 17.3297 4.54564C18.2378 5.45392 18.7486 6.68539 18.75 7.96989Z" fill="#E94430"/>
</svg>
